!!!!SEGMENT: pl-wtm--r-245-n--001_noskowski-zygmunt--piesni-ludowe-mlynarz.krn
!!!cenid: 18xx:2148
!!!COM: Noskowski, Zygmunt
!!!COM-rismID: pe106604
!!!CDT: 1846/05/02-1909/07/23
!!!CNT: Polish
!!!GTL: Pieśni ludowe
!!!OTL: Młynarz
!!!PDT:
!!!AGN: Secular; Song
!!!SMS-siglum: PL-Wtm
!!!SMS-shelfmark: R 245/N
!!!SMS-shelfwork: 001 G
!!!SMS-variant:
!!!SMS-altvar:
!!!NIFC-rismSourceID: 1001100020
!!!NIFC-islandoraID:
!!!URL-pdf-islandora:
!!!URL-scan:
!!!ONB-nifc: UWAGA: w zbiorze: 1. Młynarz, 2. Na Mazurze, 3. Kędy jedziesz?, 4. Hasło Liry Łódzkiej
!!!AIN: 1 bass 1 tenor
!!!key:
**kern	**text	**mod-text	**mod-text	**mod-text	**dynam	**mod-dynam	**kern	**text	**text	**text	**dynam
*part2	*part2	*part2	*part2	*part2	*part2	*part2	*part1	*part1	*part1	*part1	*part1
*staff2	*staff2	*	*	*	*	*	*staff1	*staff1	*staff1	*staff1	*
*Ibass	*	*	*	*	*	*	*Itenor	*	*	*	*
*I"Basy	*	*	*	*	*	*	*I"Tenory	*	*	*	*
*I'B.	*	*	*	*	*	*	*I'T.	*	*	*	*
!!LO:MO:ori
*	*	*	*	*	*	*	*ITrd7c12	*	*	*	*
!!LO:MO:end
*clefF4	*	*	*	*	*	*	*clefG2	*	*	*	*
*	*	*	*	*	*	*	*clefGv2	*	*	*	*
*k[f#c#g#]	*	*	*	*	*	*	*k[f#c#g#]	*	*	*	*
*A:	*	*	*	*	*	*	*A:	*	*	*	*
*M2/4	*	*	*	*	*	*	*M2/4	*	*	*	*
*>[A,A,A,B]	*	*	*	*	*	*	*	*	*	*	*
=1	=1	=1	=1	=1	=1	=1	=1	=1	=1	=1	=1
*>A	*	*	*	*	*	*	*	*	*	*	*
*^	*	*	*	*	*	*	*^	*	*	*	*
!	!	!	!	!	!	!	!	!LO:TX:a:t=Ułożył na chór męski\nZygmunt Noskowski	!	!	!	!	!
!	!	!	!	!	!	!	!	!LO:TX:a:t=Młynarz Pieśń ludowa	!	!	!	!	!
!	!	!	!	!	!	!	!	!LO:TX:t=P:problem=głos tenorów zapisany w kluczu wiolinowym	!	!	!	!	!
!	!	!	!	!	!	!	!	!LO:MO:mod=!LO&colon;TX&colon;B&colon;t=Allegretto moderato	!	!	!	!	!
!	!	!	!	!	!	!LO:DY:rj	!	!LO:TX:a:t=Allegretto moderato.	!	!	!	!	!LO:DY:rj
8A/	8AA\	.	.	Dur	.	mf	mf	8e/	8c#\	.	Dur	.	mf
8A/	8AA\	.	.	dur	.	.	.	8e/	8c#\	.	dur	.	.
8E/	8E\	.	.	dyr	.	.	.	8c#/	8A\	.	dyr	.	.
8E/	8E\	.	.	dyr	.	.	.	8c#/	8A\	.	dyr	.	.
=2	=2	=2	=2	=2	=2	=2	=2	=2	=2	=2	=2	=2	=2
8A/	8AA\	.	.	dur	.	.	.	8e/	8c#\	.	dur	.	.
8A/	8AA\	.	.	dur	.	.	.	8e/	8c#\	.	dur	.	.
8E/	8E\	.	.	dyr	.	.	.	8c#/	8A\	.	dyr	.	.
8E/	8E\	.	.	dyr	.	.	.	8c#/	8A\	.	dyr {	.	.
=3	=3	=3	=3	=3	=3	=3	=3	=3	=3	=3	=3	=3	=3
8E/	8AA\	dur	.	dur	.	.	.	8.c#/	8.A\	Ta-	Oj!	Ko-	.
8E/	8AA\	dur	.	dur	.	.	.	.	.	.	.	.	.
.	.	.	.	.	.	.	.	16d/	16B\	-ki	mły-	-ło	.
8E/	8E\	dyr	.	dyr	.	.	.	8c#/	8A\	so-	-na-	ci	.
8E/	8E\	dyr	.	dyr	.	.	.	8B/	8G#\	-bie	-rzu	się	.
=4	=4	=4	=4	=4	=4	=4	=4	=4	=4	=4	=4	=4	=4
8E/	8AA\	dur	.	dur	.	.	.	8c#/	8A\	mły-	hej!	nie	.
8E/	8AA\	dur	.	dur	.	.	.	8A/	8A\	-narz	mły-	o-	.
8E/	8E\	dyr	.	dyr	.	.	.	8c#/	8A\	do-	-na-	-bra-	.
8E/	8E\	dyr	.	dyr	.	.	.	8e/	8c#\	-bry	-rzu	-ca	.
!!LO:LB:g=original
=5	=5	=5	=5	=5	=5	=5	=5	=5	=5	=5	=5	=5	=5
8E/	8AA\	dur	.	dur	.	.	.	8B/	8G#\	jak	co	mar-	.
8E/	8AA\	dur	.	dur	.	.	.	8A/	8F#\	i	ci	-na	.
8E/	8E\	dur	.	dur	.	.	.	8G#/	8G#\	wo-	się	two-	.
8D/	8D\	dur	.	dur	.	.	.	8F#/	8F#\	-je-	to	-ja	.
=6	=6	=6	=6	=6	=6	=6	=6	=6	=6	=6	=6	=6	=6
8D/	8D\	dyr	.	dyr	.	.	.	4.E/	4.E\	-wo-	dzie-	pra-	.
8C#/	8C#\	dyr	.	dyr	.	.	.	.	.	.	.	.	.
8BB/	8BB\	dyr	.	dyr	.	.	.	.	.	.	.	.	.
8E/	8E\	dyr	.	dyr {	.	.	.	8E/	8E\	-da	-je	-ca	.
=7	=7	=7	=7	=7	=7	=7	=7	=7	=7	=7	=7	=7	=7
8.F#/	8.F#\	.	Ta-	Oj!	Ko-	.	.	8.c#/	8.A\	Ta-	Oj!	Ko-	.
16F#/	16F#\	.	-ki	mły-	-ło	.	.	16d/	16B\	-ki	mły-	-ło	.
8F#/	8F#\	.	so-	-na-	ci	.	.	8c#/	8A\	so-	-na-	ci	.
8D/	8D\	.	-bie	-rzu,	się	.	.	8B/	8G#\	-bie	-rzu,	się	.
=8	=8	=8	=8	=8	=8	=8	=8	=8	=8	=8	=8	=8	=8
8C#/	8C#\	.	mły-	hej	nie	.	.	8c#/	8A\	mły-	hej	nie	.
8D/	8D\	.	-narz	mły-	o-	.	.	8A/	8F#\	-narz	mły-	o-	.
8E/	8C#\	.	do-	-na-	-bra-	.	.	8c#/	8A\	do-	-na-	-bra-	.
8E/	8AA\	.	-bry	-rzu	-ca	.	.	8e/	8c#\	-bry	-rzu	-ca	.
=9	=9	=9	=9	=9	=9	=9	=9	=9	=9	=9	=9	=9	=9
8E/	8GG#\	.	jak	co	mar-	.	.	8B/	8B\	jak	co	mar-	.
8F#/	8AA\	.	i	ci	-na	.	.	8A/	8A\	i	ci	-na	.
8E/	8BB\	.	wo-	się	two-	.	.	8G#/	8G#\	wo-	się	two-	.
8D#X/	8BB\	.	-je-	to	-ja	.	.	8F#/	8F#\	-je-	to	-ja	.
!!LO:LB:g=original
=10	=10	=10	=10	=10	=10	=10	=10	=10	=10	=10	=10	=10	=10
4.E/	(8E\L	.	-wo-	dzie-	pra-	.	.	4.E/	4.E\	-wo-	dzie-	pra-	.
.	8C#\	.	.	.	.	.	.	.	.	.	.	.	.
.	8BB\J)	.	.	.	.	.	.	.	.	.	.	.	.
8E/	8AA\	.	-da	-je	-ca	.	.	8E/	8E\	-da	-je	-ca	.
=11	=11	=11	=11	=11	=11	=11	=11	=11	=11	=11	=11	=11	=11
8.E/	8.GG#\	.	Wo-	Ko-	I	.	.	8.E/	8.E\	Wo-	Ko-	I	.
16Dn/	16GG#\	.	-je-	-ło	ten	.	.	16B/	16E\	-je-	-ło	ten	.
8D/	8BB\	.	-wo-	ci	py-	.	.	8G#/	8E\	-wo-	ci	py-	.
8D/	8GG#\	.	-dzie	się	-tel	.	.	8E/	8E\	-dzie	się	-tel	.
=12	=12	=12	=12	=12	=12	=12	=12	=12	=12	=12	=12	=12	=12
8C#/	8AA\	.	ro-	nie	nie	.	.	8A/	8E\	ro-	nie	nie	.
8C#/	8AA\	.	-bią	o-	nie	.	.	(16B/LL	8E\	-bią	o-	nie	.
.	.	.	.	.	.	.	.	16A/JJ)	.	.	.	.	.
8D/	8BB\	.	lu-	-bra-	sie-	.	.	8G#/	8E\	lu-	-bra-	sie-	.
8C#/	8AA\	.	-dzie	ca	-je	.	.	8A/	8E\	-dzie	ca	-je	.
=13	=13	=13	=13	=13	=13	=13	=13	=13	=13	=13	=13	=13	=13
8D/	8GG#\	.	mły-	py-	wszys-	.	.	8E/	8E\	mły-	py-	wszys-	.
8D/	8GG#\	.	-na-	-tel	-tko	.	.	8B/	8E\	-na-	-tel	-tko	.
8D/	8BB\	.	-rzo-	ci	ci	.	.	8G#/	8E\	-rzo-	ci	ci	.
8E/	8E\	.	-wi	nie	zmar-	.	.	8E/	8E\	-wi	nie	zmar-	.
=14	=14	=14	=14	=14	=14	=14	=14	=14	=14	=14	=14	=14	=14
(<8E/L	(<4C#\	.	wo-	sie-	-nie-	.	.	4.e/	(4A\	wo-	sie-	-nie-	.
8F#/	.	.	.	.	.	.	.	.	.	.	.	.	.
8G#/J)	8BB\)	.	.	.	.	.	.	.	8B\)	.	.	.	.
8E/	8BB\	.	-da	-je	-je	.	.	8d/	8G#\	-da	-je	-je	.
!!LO:LB:g=original
=15	=15	=15	=15	=15	=15	=15	=15	=15	=15	=15	=15	=15	=15
!	!	!	!	!	!	!	!	!	!	!	!	!	!LO:DY:a
8.E/	8.AA\	.	Wo-	Ko-	I	.	.	8.c#/	8.A\	Wo-	Ko-	I	<
!	!	!	!	!	!	!LO:HP:b	!	!	!	!	!	!	!
16E/	16AA\	.	-je-	-ło	ten	<	<	16d/	16B\	-je-	-ło	ten	.
8E/	8AA\	.	-wo-	ci	py-	.	.	8c#/	8A\	-wo-	ci	py-	.
8E/	8D\	.	-dzie	się	-tel	[	[	8B/	8G#\	-dzie	się	-tel	.
!	!	!	!	!	!	!LO:DY:b	!	!	!	!	!	!	!
.	.	.	.	.	.	f	f	.	.	.	.	.	.
=16	=16	=16	=16	=16	=16	=16	=16	=16	=16	=16	=16	=16	=16
!	!	!	!	!	!	!	!	!	!	!	!	!	!LO:DY:a
8E/	8C#\	.	ro-	nie	nie	.	.	8c#/	8A\	ro-	nie	nie	[ f
8G#/	8BB\	.	-bią	o-	nie	.	.	8e/	8d\	-bią	o-	nie	.
8A/	8AA\	.	lu-	-bra-	sie-	.	.	8a/	8c#\	lu-	-bra-	sie-	.
8F#/	8F#\	.	-dzie	-ca	-je	.	.	8c#/	8A\	-dzie	-ca	-je	.
=17	=17	=17	=17	=17	=17	=17	=17	=17	=17	=17	=17	=17	=17
8F#/	8BB\	.	mły-	py-	wszys-	.	.	8e/	8c#\	mły-	py-	wszys-	.
8F#/	8D\	.	-na-	-tel	-tko	.	.	8d/	8B\	-na-	-tel	-tko	.
8E/	8E\	.	-rzo-	ci	ci	.	.	8c#/	8A\	-rzo-	ci	ci	.
8E/	8D\	.	-wi	nie	zmar-	.	.	8e/	8G#\	-wi	nie	zmar-	.
=18	=18	=18	=18	=18	=18	=18	=18	=18	=18	=18	=18	=18	=18
(8E/L	(8C#\L	.	wo-	sie-	-nie-	.	.	4A/	4A\	wo-	sie-	-nie-	.
8D/J)	8BB\J)	.	.	.	.	.	.	.	.	.	.	.	.
4C#/	4AA\	.	-da.	-je	-je	.	.	4A/	4E\	-da.	-je	-je	.
=19:|!	=19:|!	=19:|!	=19:|!	=19:|!	=19:|!	=19:|!	=19:|!	=19:|!	=19:|!	=19:|!	=19:|!	=19:|!	=19:|!
*>B	*	*	*	*	*	*	*	*	*	*	*	*	*
!	!	!	!	!	!	!LO:DY:b	!	!	!	!	!	!	!
8A/	8AA\	.	.	Dur	.	f	f	8e/	8c#\	.	Dur	.	f
8A/	8AA\	.	.	dur	.	.	.	8e/	8c#\	.	dur	.	.
8E/	8E\	.	.	dyr	.	.	.	8c#/	8A\	.	dyr	.	.
8E/	8E\	.	.	dyr	.	.	.	8c#/	8A\	.	dyr	.	.
!!LO:LB:g=original
=20	=20	=20	=20	=20	=20	=20	=20	=20	=20	=20	=20	=20	=20
!	!	!	!	!	!	!LO:HP:b	!	!	!	!	!	!	!LO:DY:a
8A/	8AA\	.	.	dur	.	>	>	8e/	8c#\	.	dur	.	>
8A/	8AA\	.	.	dur	.	.	.	8e/	8c#\	.	dur	.	.
8F#/	8F#\	.	.	dyr	.	.	.	8c#/	8A\	.	dyr	.	.
8F#/	8F#\	.	.	dyr	.	.	.	8c#/	8A\	.	dyr	.	.
=21	=21	=21	=21	=21	=21	=21	=21	=21	=21	=21	=21	=21	=21
!	!	!	!	!	!	!LO:DY:rj:b	!	!	!	!	!	!	!LO:DY:a
8E/	8C#\	.	.	dur	.	] p	] p	8e/	8A\	.	dur	.	] p
8r	8ryy	.	.	.	.	.	.	8r	8ryy	.	.	.	.
8F#/	8D\	.	.	dyr	.	.	.	8c#/	8A\	.	dyr	.	.
8r	8ryy	.	.	.	.	.	.	8r	8ryy	.	.	.	.
=22	=22	=22	=22	=22	=22	=22	=22	=22	=22	=22	=22	=22	=22
!	!	!	!	!	!	!LO:HP:b	!	!	!	!	!	!	!LO:DY:a
8G#/	8E\	.	.	dur	.	>	>	8e/	8c#\	.	dur	.	>
8r	8ryy	.	.	.	.	.	.	8r	8ryy	.	.	.	.
8D/	8EE\	.	.	dyr	.	]	]	8c#/	8G#\	.	dyr	.	.
8r	8ryy	.	.	.	.	.	.	8r	8ryy	.	.	.	.
=23	=23	=23	=23	=23	=23	=23	=23	=23	=23	=23	=23	=23	=23
!	!	!	!	!	!	!LO:DY:rj:a	!	!	!	!	!	!	!LO:DY:rj:a
[2C#/	[2AA\	.	.	durrrrrrrr!	.	pp <	pp <	[2A/	[2E\	.	durrrrrrrr!	.	] pp <
=24	=24	=24	=24	=24	=24	=24	=24	=24	=24	=24	=24	=24	=24
!	!	!	!	!	!	!LO:DY:a	!	!	!	!	!	!	!LO:DY:a
8C#/]	8AA\]	.	.	.	.	[ f	[ f	8A/]	8E\]	.	.	.	[ f
*v	*v	*	*	*	*	*	*	*	*	*	*	*	*
*	*	*	*	*	*	*	*v	*v	*	*	*	*
*	*	*	*	*	*	*	*X8ba	*	*	*	*
*^	*	*	*	*	*	*	*^	*	*	*	*
8r	8ryy	.	.	.	.	.	.	8r	8ryy	.	.	.	.
4r	4ryy	.	.	.	.	.	.	4r	4ryy	.	.	.	.
*v	*v	*	*	*	*	*	*	*	*	*	*	*	*
*	*	*	*	*	*	*	*v	*v	*	*	*	*
==	==	==	==	==	==	==	==	==	==	==	==
*-	*-	*-	*-	*-	*-	*-	*-	*-	*-	*-	*-
!!!system-decoration: [(s1,s2)]
!!!RDF**kern: > = above
!!!RDF**kern: < = below
!!!ENC-modern: Leszek Kubiak
!!!END-modern: 2022-08-17
!!!EED: Leszek Kubiak
!!!EEV: 2021-06-17
!!!ENC: Marcin Jachim
!!!END: 2021-05-22
!!!filter-modern: sic -sq | autostem -r | shed -e "s/LO:DY:(a|b|rj)/LO:dy:$1/L" | shed -k -e "s/([^a-gA-Gn#X-])[<>]/$1/g" | modori -m
